X: 1741
T: Appleby Fair
R: jig
M: 6/8
K: Dmajor
|:A|DF/G/A d3|A^GA B=GE|DFA d2 f|gfg ecA|
DFA dB/c/d|AF/G/A [BG][GE][ECc]|afd e>fg|ABc d2:|
|:a/g/|f2 a d2 f|B2 d A3|FGA BB/c/d|faf e3|
faf e/f/ge|dfd B3|FF/G/A B>ed|c^Bc d2:|

